X:551
T: ICH WOLLT EIN BAEUMLEIN STEIGEN
N: E0527A
O: Europa, Mitteleuropa, Deutschland, Hessen, Darmstadt; Schwalbach
R: Liebes - Lied
M: 2/4
L: 1/16
K: F
C2 | F3GA2=B2 | c2c2c2
c2 | d2e2f2d2 | c4z2
c2 | c2=B2B2B2 | =B2A2A2
A2 | G2G2A2G2 | F2A2c2
c2 | c2=B2B2B2 | =B2A2A2
A2 | G2G2A2G2 | F4z2

@@@ Tune index: 4201
